X:1
T: Paddy the Dandy
C:
R:Jig
Q:180
K:D
M:6/8
L:1/16
A,2D2D2 F2D2D2|A2D2D2 F2D2D2|A,2D2D2 F2D2D2|E2F2E2 E2D2B,2|
A,2D2D2 F2D2D2|A2D2D2 F2G2A2|B2c2d2 A2G2F2|E2D2C2 D4A2|
A2d2d2 f2d2d2|e2d2d2 f2d2d2|A2d2d2 f2d2d2|e2d2B2 B2A2F2|
A2d2d2 f2d2d2|e2d2d2 f2d2A2|B2c2d2 A2G2F2|E2D2C2 D6|
A3BAF D2F2A2|D2F2A2 B4d2|A3BAF D2F2A2|f2e2A2 B4d2|
A3BAF D2F2A2|D2F2A2 d4de|f2f2a2 g2f2e2|f2d2B2 A2B2d2|
A3BAF D2F2A2|D2F2A2 B4d2|A3BAF D2F2A2|f2e2A2 B4d2|
A3BAF D2F2A2|D2F2A2 d2e2f2|g2f2e2 f2d2B2|A2F2D2 D6||
